usr/share/icons/biglinux-icons-material-dark/symbolic/status/disk-quota-high-symbolic.svg

<svg xmlns="http://www.w3.org/2000/svg" viewBox="0 0 22 22">
<defs id="defs1">
<style id="current-color-scheme" type="text/css">
.ColorScheme-Contrast{color:#232629}.ColorScheme-NegativeText{color:#da4453}
</style>
</defs>
<path d="M16 12a3 1 0 0 0-3 1v5a3 1 0 0 0 3 1 3 1 0 0 0 3-1v-5a3 1 0 0 0-3-1m-.1 1a3 1 0 0 1 .1 0 3 1 0 0 1 2 .258v.482a3 1 0 0 1-2 .26 3 1 0 0 1-2-.3v-.5a3 1 0 0 1 1.9-.2M14 14.74a3 1 0 0 0 2 .26 3 1 0 0 0 2-.26v1a3 1 0 0 1-2 .26 3 1 0 0 1-2-.3zm0 2a3 1 0 0 0 2 .26 3 1 0 0 0 2-.26v1a3 1 0 0 1-2 .26 3 1 0 0 1-2-.3z" class="ColorScheme-NegativeText" style="fill:currentColor;fill-opacity:1;stroke:none"/>
<path d="M4 3v16h8v-3H7l-2-2v-2.1c.6-.2 1-.8 1-1.4s-.4-1.2-1-1.4V7c0-1.7 1.3-3 3-3h4c1.66 0 3 1.34 3 3v2.1c-.6.2-1 .8-1 1.4 0 .2 0 .3.1.5H16V3Zm2 14h5v1H6Z" class="ColorScheme-Contrast" style="fill:currentColor;fill-opacity:1;stroke:none"/>
</svg>

<svg viewBox="0 0 22 22" xmlns="http://www.w3.org/2000/svg">
    <defs id="defs1">
        <style type="text/css" id="current-color-scheme">
            .ColorScheme-Text {
                color:#232629;
            }
            .ColorScheme-NegativeText {
                color:#da4453;
            }
        </style>
    </defs>
    <path style="fill:currentColor;fill-opacity:1;stroke:none"
        d="M 16 12 A 3 1 0 0 0 13 13 L 13 18 A 3 1 0 0 0 16 19 A 3 1 0 0 0 19 18 L 19 13 A 3 1 0 0 0 16 12 z M 15.9 13 A 3 1 0 0 1 16 13 A 3 1 0 0 1 18 13.257812 L 18 13.74 A 3 1 0 0 1 16 14 A 3 1 0 0 1 14 13.7 L 14 13.2 A 3 1 0 0 1 15.9 13 z M 14 14.74 A 3 1 0 0 0 16 15 A 3 1 0 0 0 18 14.74 L 18 15.74 A 3 1 0 0 1 16 16 A 3 1 0 0 1 14 15.7 L 14 14.74 z M 14 16.74 A 3 1 0 0 0 16 17 A 3 1 0 0 0 18 16.74 L 18 17.74 A 3 1 0 0 1 16 18 A 3 1 0 0 1 14 17.7 L 14 16.74 z "
        class="ColorScheme-NegativeText"/>
    <path style="fill:currentColor;fill-opacity:1;stroke:none"
        d="m 4,3 v 16 h 8 V 16 H 7 L 5,14 V 11.9 C 5.6,11.7 6,11.1 6,10.5 6,9.9 5.6,9.3 5,9.1 V 7 C 5,5.3 6.3,4 8,4 h 4 c 1.66,0 3,1.34 3,3 V 9.1 C 14.4,9.3 14,9.9 14,10.5 c 6.76e-4,0.2 0,0.3 0.1,0.5 H 16 V 3 Z m 2,14 h 5 v 1 H 6 Z"
        class="ColorScheme-Text"/>
</svg>
